X: 10
T: Air for a Whistle
C: Armand Aromin
H: 10/2/04
M: 4/4
L: 1/8
R: Air
K: Emin
E2 B2 B2 AG | FGAB A2 GF | E2 B2 B2 B^c | ded^c B2 BA |
E2 B2 B2 AG | FGAB A2 GF | GFEG FE D2 |1 E6 D2 :|2 E6 A2 |
B2 e2 e2 de | fgfe d2 d^c | B2 e2 e2 d^c | d2 B2 B2 BA |
B2 e2 e2 de | fgfe d2 ef | gfeg fedg |1 e6 A2 :|2 e6 D2 |
